X:7
T:Port na Glcai
R:air
N:Nol Hill
I:abc2nwc
M:3/4
L:1/8
K:D
d6-|d2(3fed)c2|A6-|A2BA G2|F6|G4GG|A6-|A4-AF|G8|A6-|A4-AF|G12||
d6-|d2(3fed)c2|A6-|A2BA G2|F6|
G6{AGFG}|A6-|A4-AB|=c4d2|B3A GB|A12:|
|:A2B|c6|d6|e6-|e4f/2g3/2|f6|g6|
f g3|a6-|a4-ag|f a2f g2|e6-|e2fe d2|c12:|
